X:1
T:Eardisley, CM
T:Eardisley, CM
T:Traditional English Tune
T:Public Domain Courtesy of the Cyber Hymnal™
C:Traditional English Tune
Z:Public Domain
Z:Courtesy of the Cyber Hymnal™
%%score ( 1 2 ) ( 3 4 )
L:1/8
Q:1/4=108
M:none
K:Eb
V:1 treble 
V:2 treble 
V:3 bass 
V:4 bass 
V:1
 (EF) | [EG]2 (GF) [B,E]2 ([DF][EG]) | [FA]2 ([FA][EG]) [DF]2 (E[DF]) | [EG]2 (AB) (AB) (cd) | %4
 B6 (GA) | [FB]2 [Ec]2 [FB]2 [DG]2 | (EF) G2 [DF]2 (E[B,F]) | (GA) [EB]2 ([DF][CE]) (FG) | E6 |] %9
V:2
 B,2 | x2 E2 x4 | x6 E x | x2 E2 E2 D2 | (E2 D2 E2) E2 | x8 | C2 (B,C) x E x2 | B,2 x3 D2 x | E6 |] %9
V:3
 (G,A,) | [E,B,]2 (B,A,) [E,G,]2 B,2 | [F,C]2 [A,C]2 [B,D]2 ([G,B,][F,A,]) | %3
 [E,B,]2 B,2 [F,C]2 [B,,A,]2 | [E,G,]2 [F,A,]2 [G,B,]2 [C,C]2 | [D,B,]2 [C,G,]2 [D,B,]2 [B,,B,]2 | %6
 [C,G,]2 E,2 [B,,B,]2 ([C,G,][D,F,]) | E,2 B,2 B,2 [B,,A,]2 | [E,G,]6 |] %9
V:4
 E,2 | x2 E,2 x (A,G,) x | x8 | x2 (F,G,) x4 | x8 | x8 | x2 (G,,A,,) x4 | E,2 (G,A,) B,2 x2 | x6 |] %9

